X:1
T: Effie Glasgow of Longmorn
C:William Macpherson
R:Strathspey
Q: 128
K:D
M:4/4
L:1/16
|:A,2|D3F A3d BG3 e3d|cA3 a3g fd3 AF3|D3F A3d BG3 e3d|cA3 GC3 D6 A,2|
D3F A3d BG3 e3d|cA3 a3g fd3 AF3|D3F A3d BG3 e3d|cA3 GC3 D6 fg|
a3f da3 g3e cA3|f3d AF3 EA,3 CE3|D3F A,3D G,B,3 B3G|F3d Ec3 d4 d2fg|
a3f da3 g3e cA3|f3d AF3 EA,3 CE3|D3F A,3D G,B,3 B3G|F3d Ec3 dD3 D2:|
